my-app/src/app/media/palestras.svg

<svg width="43" height="43" viewBox="0 0 43 43" fill="none" xmlns="http://www.w3.org/2000/svg">
<path d="M40.1182 0.0708008H3.1387C2.40313 0.0708008 1.69769 0.363004 1.17756 0.88313C0.657438 1.40326 0.365234 2.1087 0.365234 2.84427C0.365234 3.57983 0.657438 4.28527 1.17756 4.8054C1.69769 5.32553 2.40313 5.61773 3.1387 5.61773H40.1182C40.8538 5.61773 41.5592 5.32553 42.0794 4.8054C42.5995 4.28527 42.8917 3.57983 42.8917 2.84427C42.8917 2.1087 42.5995 1.40326 42.0794 0.88313C41.5592 0.363004 40.8538 0.0708008 40.1182 0.0708008Z" fill="white"/>
<path d="M13.3066 11.2573V14.8628H16.9121C16.731 13.9745 16.2926 13.159 15.6515 12.518C15.0104 11.8769 14.195 11.4385 13.3066 11.2573Z" fill="white"/>
<path d="M3.13867 31.5035C3.13867 32.4842 3.52828 33.4248 4.22178 34.1183C4.91528 34.8118 5.85587 35.2014 6.83662 35.2014H20.7039V37.2168C20.0871 37.4349 19.5672 37.864 19.2362 38.4283C18.9052 38.9927 18.7843 39.6558 18.8949 40.3007C19.0055 40.9455 19.3406 41.5305 19.8408 41.9521C20.341 42.3738 20.9742 42.6051 21.6284 42.6051C22.2827 42.6051 22.9159 42.3738 23.4161 41.9521C23.9163 41.5305 24.2513 40.9455 24.362 40.3007C24.4726 39.6558 24.3517 38.9927 24.0207 38.4283C23.6896 37.864 23.1698 37.4349 22.5529 37.2168V35.2014H36.4202C37.401 35.2014 38.3416 34.8118 39.0351 34.1183C39.7286 33.4248 40.1182 32.4842 40.1182 31.5035V7.4668H3.13867V31.5035ZM21.6284 40.7484C21.3832 40.7484 21.1481 40.651 20.9747 40.4776C20.8013 40.3042 20.7039 40.0691 20.7039 39.8239C20.7039 39.5787 20.8013 39.3435 20.9747 39.1702C21.1481 38.9968 21.3832 38.8994 21.6284 38.8994C21.8736 38.8994 22.1088 38.9968 22.2821 39.1702C22.4555 39.3435 22.5529 39.5787 22.5529 39.8239C22.5529 40.0691 22.4555 40.3042 22.2821 40.4776C22.1088 40.651 21.8736 40.7484 21.6284 40.7484ZM23.4774 9.31577H36.4202C36.6654 9.31577 36.9006 9.41317 37.074 9.58655C37.2473 9.75992 37.3447 9.99507 37.3447 10.2403C37.3447 10.4855 37.2473 10.7206 37.074 10.894C36.9006 11.0673 36.6654 11.1647 36.4202 11.1647H23.4774C23.2322 11.1647 22.9971 11.0673 22.8237 10.894C22.6503 10.7206 22.5529 10.4855 22.5529 10.2403C22.5529 9.99507 22.6503 9.75992 22.8237 9.58655C22.9971 9.41317 23.2322 9.31577 23.4774 9.31577ZM23.4774 13.0137H36.4202C36.6654 13.0137 36.9006 13.1111 37.074 13.2845C37.2473 13.4579 37.3447 13.693 37.3447 13.9382C37.3447 14.1834 37.2473 14.4186 37.074 14.5919C36.9006 14.7653 36.6654 14.8627 36.4202 14.8627H23.4774C23.2322 14.8627 22.9971 14.7653 22.8237 14.5919C22.6503 14.4186 22.5529 14.1834 22.5529 13.9382C22.5529 13.693 22.6503 13.4579 22.8237 13.2845C22.9971 13.1111 23.2322 13.0137 23.4774 13.0137ZM23.4774 16.7117H30.8733C31.1185 16.7117 31.3537 16.8091 31.527 16.9825C31.7004 17.1558 31.7978 17.391 31.7978 17.6362C31.7978 17.8814 31.7004 18.1165 31.527 18.2899C31.3537 18.4633 31.1185 18.5607 30.8733 18.5607H23.4774C23.2322 18.5607 22.9971 18.4633 22.8237 18.2899C22.6503 18.1165 22.5529 17.8814 22.5529 17.6362C22.5529 17.391 22.6503 17.1558 22.8237 16.9825C22.9971 16.8091 23.2322 16.7117 23.4774 16.7117ZM22.5529 25.0321C22.5529 24.7869 22.6503 24.5517 22.8237 24.3784C22.9971 24.205 23.2322 24.1076 23.4774 24.1076C23.7226 24.1076 23.9578 24.205 24.1311 24.3784C24.3045 24.5517 24.4019 24.7869 24.4019 25.0321V31.5035H26.2509V28.73C26.2509 28.4848 26.3483 28.2497 26.5217 28.0763C26.695 27.9029 26.9302 27.8055 27.1754 27.8055C27.4206 27.8055 27.6557 27.9029 27.8291 28.0763C28.0025 28.2497 28.0999 28.4848 28.0999 28.73V31.5035H29.9488V25.9566C29.9488 25.7114 30.0462 25.4762 30.2196 25.3028C30.393 25.1295 30.6281 25.0321 30.8733 25.0321C31.1185 25.0321 31.3537 25.1295 31.527 25.3028C31.7004 25.4762 31.7978 25.7114 31.7978 25.9566V31.5035H33.6468V27.8055C33.6468 27.5603 33.7442 27.3252 33.9176 27.1518C34.0909 26.9784 34.3261 26.881 34.5713 26.881C34.8165 26.881 35.0516 26.9784 35.225 27.1518C35.3984 27.3252 35.4958 27.5603 35.4958 27.8055V31.5035H36.4202C36.6654 31.5035 36.9006 31.6009 37.074 31.7743C37.2473 31.9476 37.3447 32.1828 37.3447 32.428C37.3447 32.6732 37.2473 32.9083 37.074 33.0817C36.9006 33.2551 36.6654 33.3525 36.4202 33.3525H23.4774C23.2322 33.3525 22.9971 33.2551 22.8237 33.0817C22.6503 32.9083 22.5529 32.6732 22.5529 32.428V25.0321ZM12.3836 9.31577C13.6635 9.31577 14.9147 9.69531 15.9789 10.4064C17.0431 11.1175 17.8726 12.1282 18.3624 13.3107C18.8522 14.4932 18.9803 15.7944 18.7306 17.0497C18.4809 18.305 17.8646 19.4581 16.9595 20.3632C16.0545 21.2682 14.9014 21.8846 13.6461 22.1343C12.3907 22.384 11.0895 22.2558 9.90705 21.766C8.72455 21.2762 7.71385 20.4467 7.00277 19.3825C6.29168 18.3183 5.91214 17.0671 5.91214 15.7872C5.91214 14.0709 6.59394 12.4248 7.80757 11.2112C9.0212 9.99758 10.6672 9.31577 12.3836 9.31577ZM6.83662 24.1076H19.7795C20.0246 24.1076 20.2598 24.205 20.4332 24.3784C20.6065 24.5517 20.7039 24.7869 20.7039 25.0321C20.7039 25.2773 20.6065 25.5124 20.4332 25.6858C20.2598 25.8592 20.0246 25.9566 19.7795 25.9566H6.83662C6.59144 25.9566 6.35629 25.8592 6.18291 25.6858C6.00954 25.5124 5.91214 25.2773 5.91214 25.0321C5.91214 24.7869 6.00954 24.5517 6.18291 24.3784C6.35629 24.205 6.59144 24.1076 6.83662 24.1076ZM6.83662 27.8055H19.7795C20.0246 27.8055 20.2598 27.9029 20.4332 28.0763C20.6065 28.2497 20.7039 28.4848 20.7039 28.73C20.7039 28.9752 20.6065 29.2104 20.4332 29.3837C20.2598 29.5571 20.0246 29.6545 19.7795 29.6545H6.83662C6.59144 29.6545 6.35629 29.5571 6.18291 29.3837C6.00954 29.2104 5.91214 28.9752 5.91214 28.73C5.91214 28.4848 6.00954 28.2497 6.18291 28.0763C6.35629 27.9029 6.59144 27.8055 6.83662 27.8055ZM6.83662 31.5035H14.2325C14.4777 31.5035 14.7129 31.6009 14.8862 31.7743C15.0596 31.9476 15.157 32.1828 15.157 32.428C15.157 32.6732 15.0596 32.9083 14.8862 33.0817C14.7129 33.2551 14.4777 33.3525 14.2325 33.3525H6.83662C6.59144 33.3525 6.35629 33.2551 6.18291 33.0817C6.00954 32.9083 5.91214 32.6732 5.91214 32.428C5.91214 32.1828 6.00954 31.9476 6.18291 31.7743C6.35629 31.6009 6.59144 31.5035 6.83662 31.5035Z" fill="white"/>
<path d="M12.3849 20.4098C13.4505 20.41 14.4835 20.042 15.309 19.3681C16.1345 18.6943 16.7018 17.7559 16.9149 16.7118H12.3849C12.1397 16.7118 11.9046 16.6144 11.7312 16.441C11.5578 16.2677 11.4604 16.0325 11.4604 15.7873V11.2573C10.337 11.4854 9.33846 12.1228 8.65859 13.0458C7.97871 13.9687 7.66602 15.1114 7.78123 16.2519C7.89643 17.3924 8.4313 18.4494 9.28202 19.2177C10.1327 19.9861 11.2386 20.4109 12.3849 20.4098Z" fill="white"/>
</svg>

<svg xmlns="http://www.w3.org/2000/svg" width="43" height="43" fill="none"><path fill="#fff" d="M40.118.07H3.138a2.773 2.773 0 0 0 0 5.548h36.98a2.774 2.774 0 0 0 0-5.547M13.307 11.257v3.606h3.605a4.62 4.62 0 0 0-3.605-3.606"/><path fill="#fff" d="M3.139 31.504A3.7 3.7 0 0 0 6.837 35.2h13.867v2.016a2.773 2.773 0 1 0 1.849 0V35.2H36.42a3.7 3.7 0 0 0 3.698-3.698V7.467H3.138zm18.49 9.244a.924.924 0 1 1 0-1.848.924.924 0 0 1 0 1.848m1.848-31.432H36.42a.925.925 0 0 1 0 1.849H23.477a.925.925 0 0 1 0-1.85m0 3.698H36.42a.925.925 0 1 1 0 1.849H23.477a.924.924 0 0 1 0-1.85m0 3.698h7.396a.924.924 0 1 1 0 1.849h-7.396a.924.924 0 0 1 0-1.85m-.924 8.32a.924.924 0 1 1 1.849 0v6.471h1.849V28.73a.924.924 0 0 1 1.849 0v2.773h1.849v-5.546a.925.925 0 1 1 1.849 0v5.546h1.849v-3.698a.924.924 0 0 1 1.849 0v3.698h.924a.925.925 0 1 1 0 1.85H23.477a.924.924 0 0 1-.924-.925zM12.383 9.316a6.471 6.471 0 1 1 0 12.942 6.471 6.471 0 0 1 0-12.942M6.838 24.108h12.942a.925.925 0 0 1 0 1.849H6.837a.924.924 0 0 1 0-1.85m0 3.697h12.942a.925.925 0 0 1 0 1.85H6.837a.924.924 0 0 1 0-1.85m0 3.698h7.396a.924.924 0 1 1 0 1.85H6.837a.924.924 0 0 1 0-1.85"/><path fill="#fff" d="M12.385 20.41a4.62 4.62 0 0 0 4.53-3.698h-4.53a.924.924 0 0 1-.925-.925v-4.53a4.622 4.622 0 0 0 .925 9.153"/></svg>
